; generated by Slic3r 1.3.0 on 2023-07-25 at 21:01:36

; external perimeters extrusion width = 0.44mm (4.25mm^3/s)
; perimeters extrusion width = 0.42mm (8.02mm^3/s)
; infill extrusion width = 0.42mm (10.69mm^3/s)
; solid infill extrusion width = 0.42mm (2.67mm^3/s)
; top infill extrusion width = 0.42mm (2.00mm^3/s)

M107
M190 S60 ; set bed temperature and wait for it to be reached
M104 S225 ; set temperature
G28 ; home all axes
G1 Z5 F5000 ; lift nozzle

; Filament gcode

M109 S225 ; set temperature and wait for it to be reached
G21 ; set units to millimeters
G90 ; use absolute coordinates
M82 ; use absolute distances for extrusion
G92 E0
G1 Z0.200 F7800.000
G1 E-2.00000 F2400.00000
G92 E0
G1 X90.827 Y83.220 F7800.000
G1 E2.00000 F2400.00000
G1 F1800
G1 X92.583 Y81.720 E2.06856
G1 X94.743 Y80.905 E2.13711
G1 X96.000 Y80.786 E2.17460
G1 X104.000 Y80.786 E2.41213
G1 X106.275 Y81.183 E2.48069
G1 X108.280 Y82.327 E2.54925
G1 X109.780 Y84.083 E2.61780
G1 X110.595 Y86.243 E2.68636
G1 X110.714 Y87.500 E2.72385
G1 X110.714 Y112.500 E3.46613
G1 X110.317 Y114.775 E3.53469
G1 X109.173 Y116.780 E3.60325
G1 X107.417 Y118.280 E3.67180
G1 X105.257 Y119.095 E3.74036
G1 X104.000 Y119.214 E3.77785
G1 X96.000 Y119.214 E4.01538
G1 X93.725 Y118.817 E4.08394
G1 X91.720 Y117.673 E4.15249
G1 X90.220 Y115.917 E4.22105
G1 X89.405 Y113.757 E4.28960
G1 X89.286 Y112.500 E4.32710
G1 X89.286 Y87.500 E5.06938
G1 X89.683 Y85.225 E5.13794
G1 X90.797 Y83.272 E5.20471
G1 X91.181 Y83.354 F7800.000
G1 F1800
G1 X92.923 Y81.937 E5.27140
G1 X96.000 Y81.143 E5.36574
G1 X104.000 Y81.143 E5.60327
G1 X106.211 Y81.540 E5.66997
G1 X108.146 Y82.681 E5.73666
G1 X109.563 Y84.423 E5.80336
G1 X110.357 Y87.500 E5.89769
G1 X110.357 Y112.500 E6.63998
G1 X109.960 Y114.711 E6.70667
G1 X108.819 Y116.646 E6.77337
G1 X107.077 Y118.063 E6.84006
G1 X104.000 Y118.857 E6.93440
G1 X96.000 Y118.857 E7.17193
G1 X93.789 Y118.460 E7.23862
G1 X91.854 Y117.319 E7.30532
G1 X90.437 Y115.577 E7.37201
G1 X89.643 Y112.500 E7.46635
G1 X89.643 Y87.500 E8.20863
G1 X90.040 Y85.289 E8.27533
G1 X91.150 Y83.406 E8.34024
G1 E6.34024 F2400.00000
G92 E0
G1 X94.367 Y86.541 F7800.000
G1 E2.00000 F2400.00000
G1 F1800
G1 X95.241 Y85.667 E2.04109
G1 X104.759 Y85.667 E2.35767
G1 X105.833 Y86.741 E2.40818
G1 X105.833 Y113.259 E3.29018
G1 X104.759 Y114.333 E3.34069
G1 X95.241 Y114.333 E3.65727
G1 X94.167 Y113.259 E3.70778
G1 X94.167 Y86.741 E4.58978
G1 X94.325 Y86.583 E4.59720
G1 X94.650 Y86.823 F7800.000
G1 F1800
G1 X95.406 Y86.067 E4.63278
G1 X104.594 Y86.067 E4.93834
G1 X105.433 Y86.906 E4.97783
G1 X105.433 Y113.094 E5.84881
G1 X104.594 Y113.933 E5.88829
G1 X95.406 Y113.933 E6.19386
G1 X94.567 Y113.094 E6.23334
G1 X94.567 Y86.906 E7.10432
G1 X94.608 Y86.866 E7.10623
G1 X94.967 Y87.072 F7800.000
G1 F1800
G1 X95.572 Y86.467 E7.13469
G1 X104.428 Y86.467 E7.42923
G1 X105.033 Y87.072 E7.45770
G1 X105.033 Y112.928 E8.31766
G1 X104.428 Y113.533 E8.34612
G1 X95.572 Y113.533 E8.64066
G1 X94.967 Y112.928 E8.66912
G1 X94.967 Y87.132 E9.52709
G1 X95.367 Y87.238 F7800.000
G1 F1800
G1 X95.738 Y86.867 E9.54453
G1 X104.262 Y86.867 E9.82805
G1 X104.633 Y87.238 E9.84549
G1 X104.633 Y112.762 E10.69443
G1 X104.262 Y113.133 E10.71187
G1 X95.738 Y113.133 E10.99539
G1 X95.367 Y112.762 E11.01283
G1 X95.367 Y87.298 E11.85978
G1 X95.767 Y87.404 F7800.000
G1 F1800
G1 X95.904 Y87.267 E11.86620
G1 X104.096 Y87.267 E12.13869
G1 X104.233 Y87.404 E12.14511
G1 X104.233 Y112.596 E12.98303
G1 X104.096 Y112.733 E12.98945
G1 X95.904 Y112.733 E13.26195
G1 X95.767 Y112.596 E13.26837
G1 X95.767 Y87.464 E14.10429
G1 E12.10429 F2400.00000
G92 E0
G1 X103.800 Y112.300 F7800.000
G1 E2.00000 F2400.00000
G1 F1800
G1 X96.200 Y112.300 E2.22565
G1 X96.200 Y87.700 E2.95606
G1 X103.800 Y87.700 E3.18171
G1 X103.800 Y112.240 E3.91034
G1 X103.435 Y112.136 F7800.000
G1 X103.443 Y111.943 F7800.000
G1 F1800
G1 X96.557 Y111.943 E4.11479
G1 X96.557 Y88.057 E4.82399
G1 X103.443 Y88.057 E5.02844
G1 X103.443 Y111.883 E5.73586
G1 X103.086 Y111.586 F7800.000
G1 F1800
G1 X96.914 Y111.586 E5.91910
G1 X96.914 Y88.414 E6.60710
G1 X103.086 Y88.414 E6.79035
G1 X103.086 Y111.526 E7.47656
G1 X102.590 Y111.368 F7800.000
G1 F1800
G1 X102.868 Y111.090 E7.48829
G1 X102.868 Y110.582 E7.50344
G1 X102.082 Y111.368 E7.53658
G1 X101.575 Y111.368 E7.55173
G1 X102.868 Y110.075 E7.60629
G1 X102.868 Y109.567 E7.62144
G1 X101.067 Y111.368 E7.69743
G1 X100.560 Y111.368 E7.71257
G1 X102.868 Y109.060 E7.80998
G1 X102.868 Y108.552 E7.82512
G1 X100.052 Y111.368 E7.94395
G1 X99.545 Y111.368 E7.95909
G1 X102.868 Y108.045 E8.09934
G1 X102.868 Y107.537 E8.11448
G1 X99.037 Y111.368 E8.27614
G1 X98.529 Y111.368 E8.29129
G1 X102.868 Y107.029 E8.47437
G1 X102.868 Y106.522 E8.48952
G1 X98.022 Y111.368 E8.69402
G1 X97.514 Y111.368 E8.70917
G1 X102.868 Y106.014 E8.93509
G1 X102.868 Y105.507 E8.95023
G1 X97.132 Y111.242 E9.19228
G1 X97.132 Y110.735 E9.20742
G1 X102.868 Y104.999 E9.44946
G1 X102.868 Y104.492 E9.46461
G1 X97.132 Y110.227 E9.70665
G1 X97.132 Y109.720 E9.72180
G1 X102.868 Y103.984 E9.96384
G1 X102.868 Y103.477 E9.97899
G1 X97.132 Y109.212 E10.22103
G1 X97.132 Y108.704 E10.23618
G1 X102.868 Y102.969 E10.47822
G1 X102.868 Y102.462 E10.49336
G1 X97.132 Y108.197 E10.73541
G1 X97.132 Y107.689 E10.75055
G1 X102.868 Y101.954 E10.99260
G1 X102.868 Y101.446 E11.00774
G1 X97.132 Y107.182 E11.24979
G1 X97.132 Y106.674 E11.26493
G1 X102.868 Y100.939 E11.50697
G1 X102.868 Y100.431 E11.52212
G1 X97.132 Y106.167 E11.76416
G1 X97.132 Y105.659 E11.77931
G1 X102.868 Y99.924 E12.02135
G1 X102.868 Y99.416 E12.03650
G1 X97.132 Y105.152 E12.27854
G1 X97.132 Y104.644 E12.29369
G1 X102.868 Y98.909 E12.53573
G1 X102.868 Y98.401 E12.55087
G1 X97.132 Y104.137 E12.79292
G1 X97.132 Y103.629 E12.80806
G1 X102.868 Y97.894 E13.05011
G1 X102.868 Y97.386 E13.06525
G1 X97.132 Y103.121 E13.30730
G1 X97.132 Y102.614 E13.32244
G1 X102.868 Y96.879 E13.56448
G1 X102.868 Y96.371 E13.57963
G1 X97.132 Y102.106 E13.82167
G1 X97.132 Y101.599 E13.83682
G1 X102.868 Y95.864 E14.07886
G1 X102.868 Y95.356 E14.09401
G1 X97.132 Y101.091 E14.33605
G1 X97.132 Y100.584 E14.35120
G1 X102.868 Y94.848 E14.59324
G1 X102.868 Y94.341 E14.60838
G1 X97.132 Y100.076 E14.85043
G1 X97.132 Y99.569 E14.86557
G1 X102.868 Y93.833 E15.10762
G1 X102.868 Y93.326 E15.12276
G1 X97.132 Y99.061 E15.36481
G1 X97.132 Y98.554 E15.37995
G1 X102.868 Y92.818 E15.62199
G1 X102.868 Y92.311 E15.63714
G1 X97.132 Y98.046 E15.87918
G1 X97.132 Y97.539 E15.89433
G1 X102.868 Y91.803 E16.13637
G1 X102.868 Y91.296 E16.15152
G1 X97.132 Y97.031 E16.39356
G1 X97.132 Y96.523 E16.40871
G1 X102.868 Y90.788 E16.65075
G1 X102.868 Y90.281 E16.66589
G1 X97.132 Y96.016 E16.90794
G1 X97.132 Y95.508 E16.92308
G1 X102.868 Y89.773 E17.16513
G1 X102.868 Y89.265 E17.18027
G1 X97.132 Y95.001 E17.42231
G1 X97.132 Y94.493 E17.43746
G1 X102.868 Y88.758 E17.67950
G1 X102.868 Y88.632 E17.68325
G1 X102.486 Y88.632 E17.69465
G1 X97.132 Y93.986 E17.92057
G1 X97.132 Y93.478 E17.93572
G1 X101.978 Y88.632 E18.14022
G1 X101.471 Y88.632 E18.15537
G1 X97.132 Y92.971 E18.33846
G1 X97.132 Y92.463 E18.35360
G1 X100.963 Y88.632 E18.51527
G1 X100.456 Y88.632 E18.53041
G1 X97.132 Y91.956 E18.67066
G1 X97.132 Y91.448 E18.68581
G1 X99.948 Y88.632 E18.80463
G1 X99.440 Y88.632 E18.81978
G1 X97.132 Y90.940 E18.91719
G1 X97.132 Y90.433 E18.93233
G1 X98.933 Y88.632 E19.00832
G1 X98.425 Y88.632 E19.02347
G1 X97.132 Y89.925 E19.07804
G1 X97.132 Y89.418 E19.09318
G1 X97.918 Y88.632 E19.12633
G1 X97.410 Y88.632 E19.14148
G1 X97.133 Y88.910 E19.15320
M104 S220 ; set temperature
G1 Z0.600 F7800.000
G1 X103.102 Y111.602 F7800.000
G1 F3600
G1 X96.898 Y111.602 E19.49793
G1 X96.898 Y88.398 E20.78736
G1 X103.102 Y88.398 E21.13209
G1 X103.102 Y111.542 E22.41818
G1 X103.436 Y111.936 F7800.000
G1 F3600
G1 X96.564 Y111.936 E22.80005
G1 X96.564 Y88.064 E24.12662
G1 X103.436 Y88.064 E24.50849
G1 X103.436 Y111.876 E25.83172
G1 X103.780 Y112.280 F7800.000
G1 F1800
G1 X96.220 Y112.280 E26.27698
G1 X96.220 Y87.720 E27.72349
G1 X103.780 Y87.720 E28.16875
G1 X103.780 Y112.220 E29.61173
G1 X103.415 Y112.115 F7800.000
G1 X97.362 Y111.397 F7800.000
G1 F1200
G1 X97.102 Y111.137 E29.63229
G1 X97.102 Y110.662 E29.65891
G1 X97.838 Y111.398 E29.71713
G1 X98.314 Y111.398 E29.74375
G1 X97.102 Y110.186 E29.83961
G1 X97.102 Y109.710 E29.86623
G1 X98.790 Y111.398 E29.99974
G1 X99.266 Y111.398 E30.02635
G1 X97.102 Y109.234 E30.19750
G1 X97.102 Y108.759 E30.22412
G1 X99.741 Y111.398 E30.43291
G1 X100.217 Y111.398 E30.45952
G1 X97.102 Y108.283 E30.70595
G1 X97.102 Y107.807 E30.73257
G1 X100.693 Y111.398 E31.01664
G1 X101.169 Y111.398 E31.04326
G1 X97.102 Y107.331 E31.36497
G1 X97.102 Y106.856 E31.39159
G1 X101.644 Y111.398 E31.75095
G1 X102.120 Y111.398 E31.77756
G1 X97.102 Y106.380 E32.17456
G1 X97.102 Y105.904 E32.20118
G1 X102.596 Y111.398 E32.63582
G1 X102.898 Y111.398 E32.65269
G1 X102.898 Y111.223 E32.66244
G1 X97.102 Y105.428 E33.12093
G1 X97.102 Y104.953 E33.14755
G1 X102.898 Y110.748 E33.60604
G1 X102.898 Y110.272 E33.63266
G1 X97.102 Y104.477 E34.09116
G1 X97.102 Y104.001 E34.11777
G1 X102.898 Y109.796 E34.57627
G1 X102.898 Y109.320 E34.60289
G1 X97.102 Y103.525 E35.06138
G1 X97.102 Y103.049 E35.08800
G1 X102.898 Y108.844 E35.54649
G1 X102.898 Y108.369 E35.57311
G1 X97.102 Y102.574 E36.03161
G1 X97.102 Y102.098 E36.05822
G1 X102.898 Y107.893 E36.51672
G1 X102.898 Y107.417 E36.54334
G1 X97.102 Y101.622 E37.00183
G1 X97.102 Y101.146 E37.02845
G1 X102.898 Y106.941 E37.48695
G1 X102.898 Y106.466 E37.51356
G1 X97.102 Y100.671 E37.97206
G1 X97.102 Y100.195 E37.99868
G1 X102.898 Y105.990 E38.45717
G1 X102.898 Y105.514 E38.48379
G1 X97.102 Y99.719 E38.94228
G1 X97.102 Y99.243 E38.96890
G1 X102.898 Y105.038 E39.42740
G1 X102.898 Y104.563 E39.45401
G1 X97.102 Y98.768 E39.91251
G1 X97.102 Y98.292 E39.93913
G1 X102.898 Y104.087 E40.39762
G1 X102.898 Y103.611 E40.42424
G1 X97.102 Y97.816 E40.88273
G1 X97.102 Y97.340 E40.90935
G1 X102.898 Y103.135 E41.36785
G1 X102.898 Y102.660 E41.39446
G1 X97.102 Y96.865 E41.85296
G1 X97.102 Y96.389 E41.87958
G1 X102.898 Y102.184 E42.33807
G1 X102.898 Y101.708 E42.36469
G1 X97.102 Y95.913 E42.82319
G1 X97.102 Y95.437 E42.84980
G1 X102.898 Y101.232 E43.30830
G1 X102.898 Y100.757 E43.33491
G1 X97.102 Y94.962 E43.79341
G1 X97.102 Y94.486 E43.82003
G1 X102.898 Y100.281 E44.27852
G1 X102.898 Y99.805 E44.30514
G1 X97.102 Y94.010 E44.76364
G1 X97.102 Y93.534 E44.79025
G1 X102.898 Y99.329 E45.24875
G1 X102.898 Y98.854 E45.27537
G1 X97.102 Y93.059 E45.73386
G1 X97.102 Y92.583 E45.76048
G1 X102.898 Y98.378 E46.21897
G1 X102.898 Y97.902 E46.24559
G1 X97.102 Y92.107 E46.70409
G1 X97.102 Y91.631 E46.73070
G1 X102.898 Y97.426 E47.18920
G1 X102.898 Y96.950 E47.21582
G1 X97.102 Y91.155 E47.67431
G1 X97.102 Y90.680 E47.70093
G1 X102.898 Y96.475 E48.15943
G1 X102.898 Y95.999 E48.18604
G1 X97.102 Y90.204 E48.64454
G1 X97.102 Y89.728 E48.67115
G1 X102.898 Y95.523 E49.12965
G1 X102.898 Y95.047 E49.15627
G1 X97.102 Y89.252 E49.61476
G1 X97.102 Y88.777 E49.64138
G1 X102.898 Y94.572 E50.09988
G1 X102.898 Y94.096 E50.12649
G1 X97.404 Y88.602 E50.56113
G1 X97.880 Y88.602 E50.58774
G1 X102.898 Y93.620 E50.98474
G1 X102.898 Y93.144 E51.01135
G1 X98.356 Y88.602 E51.37070
G1 X98.831 Y88.602 E51.39732
G1 X102.898 Y92.669 E51.71903
G1 X102.898 Y92.193 E51.74565
G1 X99.307 Y88.602 E52.02971
G1 X99.783 Y88.602 E52.05633
G1 X102.898 Y91.717 E52.30276
G1 X102.898 Y91.241 E52.32937
G1 X100.259 Y88.602 E52.53816
G1 X100.734 Y88.602 E52.56477
G1 X102.898 Y90.766 E52.73592
G1 X102.898 Y90.290 E52.76253
G1 X101.210 Y88.602 E52.89603
G1 X101.686 Y88.602 E52.92265
G1 X102.898 Y89.814 E53.01851
G1 X102.898 Y89.338 E53.04513
G1 X102.162 Y88.602 E53.10334
G1 X102.637 Y88.602 E53.12996
G1 X102.898 Y88.863 E53.15054
G1 Z1.000 F7800.000
G1 X103.102 Y111.602 F7800.000
G1 F3600
G1 X96.898 Y111.602 E53.49526
G1 X96.898 Y88.398 E54.78469
G1 X103.102 Y88.398 E55.12942
G1 X103.102 Y111.542 E56.41552
G1 X103.436 Y111.936 F7800.000
G1 F3600
G1 X96.564 Y111.936 E56.79739
G1 X96.564 Y88.064 E58.12396
G1 X103.436 Y88.064 E58.50582
G1 X103.436 Y111.876 E59.82906
G1 X103.780 Y112.280 F7800.000
G1 F1800
G1 X96.220 Y112.280 E60.27432
G1 X96.220 Y87.720 E61.72083
G1 X103.780 Y87.720 E62.16609
G1 X103.780 Y112.220 E63.60906
G1 X103.415 Y112.115 F7800.000
G1 X102.637 Y111.398 F7800.000
G1 F1200
G1 X102.898 Y111.137 E63.62964
G1 X102.898 Y110.662 E63.65626
G1 X102.162 Y111.398 E63.71447
G1 X101.686 Y111.398 E63.74109
G1 X102.898 Y110.186 E63.83695
G1 X102.898 Y109.710 E63.86357
G1 X101.210 Y111.398 E63.99707
G1 X100.734 Y111.398 E64.02368
G1 X102.898 Y109.234 E64.19483
G1 X102.898 Y108.759 E64.22144
G1 X100.259 Y111.398 E64.43023
G1 X99.783 Y111.398 E64.45684
G1 X102.898 Y108.283 E64.70327
G1 X102.898 Y107.807 E64.72989
G1 X99.307 Y111.398 E65.01395
G1 X98.831 Y111.398 E65.04057
G1 X102.898 Y107.331 E65.36228
G1 X102.898 Y106.856 E65.38890
G1 X98.356 Y111.398 E65.74825
G1 X97.880 Y111.398 E65.77486
G1 X102.898 Y106.380 E66.17186
G1 X102.898 Y105.904 E66.19847
G1 X97.404 Y111.398 E66.63311
G1 X97.102 Y111.398 E66.64998
G1 X97.102 Y111.223 E66.65972
G1 X102.898 Y105.428 E67.11822
G1 X102.898 Y104.953 E67.14484
G1 X97.102 Y110.748 E67.60333
G1 X97.102 Y110.272 E67.62995
G1 X102.898 Y104.477 E68.08844
G1 X102.898 Y104.001 E68.11506
G1 X97.102 Y109.796 E68.57356
G1 X97.102 Y109.320 E68.60017
G1 X102.898 Y103.525 E69.05867
G1 X102.898 Y103.050 E69.08529
G1 X97.102 Y108.845 E69.54378
G1 X97.102 Y108.369 E69.57040
G1 X102.898 Y102.574 E70.02890
G1 X102.898 Y102.098 E70.05551
G1 X97.102 Y107.893 E70.51401
G1 X97.102 Y107.417 E70.54062
G1 X102.898 Y101.622 E70.99912
G1 X102.898 Y101.146 E71.02574
G1 X97.102 Y106.941 E71.48423
G1 X97.102 Y106.466 E71.51085
G1 X102.898 Y100.671 E71.96935
G1 X102.898 Y100.195 E71.99596
G1 X97.102 Y105.990 E72.45446
G1 X97.102 Y105.514 E72.48108
G1 X102.898 Y99.719 E72.93957
G1 X102.898 Y99.243 E72.96619
G1 X97.102 Y105.038 E73.42468
G1 X97.102 Y104.563 E73.45130
G1 X102.898 Y98.768 E73.90980
G1 X102.898 Y98.292 E73.93641
G1 X97.102 Y104.087 E74.39491
G1 X97.102 Y103.611 E74.42153
G1 X102.898 Y97.816 E74.88002
G1 X102.898 Y97.340 E74.90664
G1 X97.102 Y103.135 E75.36513
G1 X97.102 Y102.660 E75.39175
G1 X102.898 Y96.865 E75.85025
G1 X102.898 Y96.389 E75.87686
G1 X97.102 Y102.184 E76.33536
G1 X97.102 Y101.708 E76.36198
G1 X102.898 Y95.913 E76.82047
G1 X102.898 Y95.437 E76.84709
G1 X97.102 Y101.232 E77.30559
G1 X97.102 Y100.757 E77.33220
G1 X102.898 Y94.962 E77.79070
G1 X102.898 Y94.486 E77.81731
G1 X97.102 Y100.281 E78.27581
G1 X97.102 Y99.805 E78.30243
G1 X102.898 Y94.010 E78.76092
G1 X102.898 Y93.534 E78.78754
G1 X97.102 Y99.329 E79.24604
G1 X97.102 Y98.854 E79.27265
G1 X102.898 Y93.059 E79.73115
G1 X102.898 Y92.583 E79.75776
G1 X97.102 Y98.378 E80.21626
G1 X97.102 Y97.902 E80.24288
G1 X102.898 Y92.107 E80.70137
G1 X102.898 Y91.631 E80.72799
G1 X97.102 Y97.426 E81.18649
G1 X97.102 Y96.951 E81.21310
G1 X102.898 Y91.156 E81.67160
G1 X102.898 Y90.680 E81.69822
G1 X97.102 Y96.475 E82.15671
G1 X97.102 Y95.999 E82.18333
G1 X102.898 Y90.204 E82.64182
G1 X102.898 Y89.728 E82.66844
G1 X97.102 Y95.523 E83.12694
G1 X97.102 Y95.047 E83.15355
G1 X102.898 Y89.252 E83.61205
G1 X102.898 Y88.777 E83.63867
G1 X97.102 Y94.572 E84.09716
G1 X97.102 Y94.096 E84.12378
G1 X102.596 Y88.602 E84.55842
G1 X102.120 Y88.602 E84.58503
G1 X97.102 Y93.620 E84.98203
G1 X97.102 Y93.144 E85.00865
G1 X101.644 Y88.602 E85.36801
G1 X101.169 Y88.602 E85.39462
G1 X97.102 Y92.669 E85.71634
G1 X97.102 Y92.193 E85.74295
G1 X100.693 Y88.602 E86.02703
