; generated by Slic3r 1.3.0 on 2023-07-25 at 20:04:42

; external perimeters extrusion width = 0.44mm (4.25mm^3/s)
; perimeters extrusion width = 0.42mm (8.02mm^3/s)
; infill extrusion width = 0.42mm (10.69mm^3/s)
; solid infill extrusion width = 0.42mm (2.67mm^3/s)
; top infill extrusion width = 0.42mm (2.00mm^3/s)

M107
M190 S60 ; set bed temperature and wait for it to be reached
M104 S225 ; set temperature
G28 ; home all axes
G1 Z5 F5000 ; lift nozzle

; Filament gcode

M109 S225 ; set temperature and wait for it to be reached
G21 ; set units to millimeters
G90 ; use absolute coordinates
M82 ; use absolute distances for extrusion
G92 E0
G1 Z0.200 F7800.000
G1 E-2.00000 F2400.00000
G92 E0
G1 X64.827 Y60.720 F7800.000
G1 E2.00000 F2400.00000
G1 F1800
G1 X66.583 Y59.220 E2.06856
G1 X68.743 Y58.405 E2.13711
G1 X70.000 Y58.286 E2.17460
G1 X130.000 Y58.286 E3.95608
G1 X132.275 Y58.683 E4.02464
G1 X134.280 Y59.827 E4.09319
G1 X135.780 Y61.583 E4.16175
G1 X136.595 Y63.743 E4.23031
G1 X136.714 Y65.000 E4.26780
G1 X136.714 Y135.000 E6.34619
G1 X136.317 Y137.275 E6.41474
G1 X135.173 Y139.280 E6.48330
G1 X133.417 Y140.780 E6.55186
G1 X131.257 Y141.595 E6.62041
G1 X130.000 Y141.714 E6.65791
G1 X70.000 Y141.714 E8.43938
G1 X67.725 Y141.317 E8.50794
G1 X65.720 Y140.173 E8.57650
G1 X64.220 Y138.417 E8.64505
G1 X63.405 Y136.257 E8.71361
G1 X63.286 Y135.000 E8.75110
G1 X63.286 Y65.000 E10.82949
G1 X63.683 Y62.725 E10.89805
G1 X64.797 Y60.772 E10.96482
G1 X65.181 Y60.854 F7800.000
G1 F1800
G1 X66.923 Y59.437 E11.03152
G1 X70.000 Y58.643 E11.12585
G1 X130.000 Y58.643 E12.90733
G1 X132.211 Y59.040 E12.97403
G1 X134.146 Y60.181 E13.04072
G1 X135.563 Y61.923 E13.10741
G1 X136.357 Y65.000 E13.20175
G1 X136.357 Y135.000 E15.28014
G1 X135.960 Y137.211 E15.34684
G1 X134.819 Y139.146 E15.41353
G1 X133.077 Y140.563 E15.48023
G1 X130.000 Y141.357 E15.57456
G1 X70.000 Y141.357 E17.35604
G1 X67.789 Y140.960 E17.42274
G1 X65.854 Y139.819 E17.48943
G1 X64.437 Y138.077 E17.55612
G1 X63.643 Y135.000 E17.65046
G1 X63.643 Y65.000 E19.72885
G1 X64.040 Y62.789 E19.79555
G1 X65.150 Y60.906 E19.86046
G1 E17.86046 F2400.00000
G92 E0
G1 X68.367 Y64.041 F7800.000
G1 E2.00000 F2400.00000
G1 F1800
G1 X69.241 Y63.167 E2.04109
G1 X130.759 Y63.167 E4.08720
G1 X131.833 Y64.241 E4.13770
G1 X131.833 Y135.759 E6.51642
G1 X130.759 Y136.833 E6.56692
G1 X69.241 Y136.833 E8.61303
G1 X68.167 Y135.759 E8.66354
G1 X68.167 Y64.241 E11.04225
G1 X68.325 Y64.083 E11.04967
G1 X68.650 Y64.323 F7800.000
G1 F1800
G1 X69.406 Y63.567 E11.08525
G1 X130.594 Y63.567 E13.12034
G1 X131.433 Y64.406 E13.15982
G1 X131.433 Y135.594 E15.52751
G1 X130.594 Y136.433 E15.56699
G1 X69.406 Y136.433 E17.60208
G1 X68.567 Y135.594 E17.64157
G1 X68.567 Y64.406 E20.00926
G1 X68.608 Y64.366 E20.01117
G1 X68.967 Y64.572 F7800.000
G1 F1800
G1 X69.572 Y63.967 E20.03963
G1 X130.428 Y63.967 E22.06370
G1 X131.033 Y64.572 E22.09216
G1 X131.033 Y135.428 E24.44883
G1 X130.428 Y136.033 E24.47729
G1 X69.572 Y136.033 E26.50136
G1 X68.967 Y135.428 E26.52982
G1 X68.967 Y64.632 E28.88449
G1 X69.367 Y64.738 F7800.000
G1 F1800
G1 X69.738 Y64.367 E28.90193
G1 X130.262 Y64.367 E30.91498
G1 X130.633 Y64.738 E30.93242
G1 X130.633 Y135.262 E33.27807
G1 X130.262 Y135.633 E33.29551
G1 X69.738 Y135.633 E35.30855
G1 X69.367 Y135.262 E35.32599
G1 X69.367 Y64.798 E37.66965
G1 X69.767 Y64.904 F7800.000
G1 F1800
G1 X69.904 Y64.767 E37.67606
G1 X130.096 Y64.767 E39.67809
G1 X130.233 Y64.904 E39.68451
G1 X130.233 Y135.096 E42.01913
G1 X130.096 Y135.233 E42.02555
G1 X69.904 Y135.233 E44.02758
G1 X69.767 Y135.096 E44.03400
G1 X69.767 Y64.964 E46.36663
G1 E44.36663 F2400.00000
G92 E0
G1 X129.800 Y134.800 F7800.000
G1 E2.00000 F2400.00000
G1 F1800
G1 X70.200 Y134.800 E3.76960
G1 X70.200 Y65.200 E5.83612
G1 X129.800 Y65.200 E7.60572
G1 X129.800 Y134.740 E9.67045
G1 X129.416 Y134.687 F7800.000
G1 X129.443 Y134.443 F7800.000
G1 F1800
G1 X70.557 Y134.443 E11.41885
G1 X70.557 Y65.557 E13.46416
G1 X129.443 Y65.557 E15.21255
G1 X129.443 Y134.383 E17.25608
G1 X129.086 Y134.086 F7800.000
G1 F1800
G1 X70.914 Y134.086 E18.98327
G1 X70.914 Y65.914 E21.00738
G1 X129.086 Y65.914 E22.73457
G1 X129.086 Y134.026 E24.75690
G1 E22.75690 F2400.00000
G92 E0
G1 X101.674 Y100.262 F7800.000
G1 E2.00000 F2400.00000
G1 F1800
G1 X98.274 Y100.262 E2.10095
G1 X98.274 Y84.862 E2.55820
G1 X101.674 Y84.862 E2.65915
G1 X101.674 Y100.202 E3.11461
G1 X101.703 Y100.661 F7800.000
G1 X102.031 Y100.619 F7800.000
G1 F1800
G1 X97.917 Y100.619 E3.23677
G1 X97.917 Y84.505 E3.71522
G1 X102.031 Y84.505 E3.83737
G1 X102.031 Y100.559 E4.31404
G1 X102.389 Y100.976 F7800.000
G1 F1800
G1 X97.560 Y100.976 E4.45740
G1 X97.560 Y84.148 E4.95705
G1 X102.389 Y84.148 E5.10041
G1 X102.389 Y100.916 E5.59828
G1 E3.59828 F2400.00000
G92 E0
G1 X84.534 Y120.726 F7800.000
G1 E2.00000 F2400.00000
G1 F1800
G1 X84.892 Y121.245 E2.01872
G1 X85.123 Y121.853 E2.03805
G1 X85.201 Y122.500 E2.05739
G1 X85.123 Y123.147 E2.07673
G1 X84.892 Y123.755 E2.09606
G1 X84.522 Y124.291 E2.11540
G1 X84.035 Y124.723 E2.13474
G1 X83.458 Y125.026 E2.15407
G1 X82.826 Y125.182 E2.17341
G1 X82.174 Y125.182 E2.19275
G1 X81.542 Y125.026 E2.21208
G1 X80.965 Y124.723 E2.23142
G1 X80.477 Y124.291 E2.25078
G1 X80.101 Y123.736 E2.27069
G1 X79.877 Y123.147 E2.28941
G1 X79.799 Y122.500 E2.30875
G1 X79.877 Y121.853 E2.32808
G1 X80.108 Y121.245 E2.34742
G1 X80.478 Y120.709 E2.36676
G1 X80.965 Y120.277 E2.38609
G1 X81.542 Y119.974 E2.40543
G1 X82.175 Y119.818 E2.42479
G1 X82.846 Y119.823 E2.44471
G1 X83.458 Y119.974 E2.46342
G1 X84.035 Y120.277 E2.48278
G1 X84.489 Y120.686 E2.50092
G1 X84.534 Y120.726 F7800.000
G1 X84.773 Y120.460 F7800.000
G1 F1800
G1 X85.211 Y121.077 E2.52338
G1 X85.472 Y121.767 E2.54529
G1 X85.561 Y122.500 E2.56720
G1 X85.472 Y123.233 E2.58912
G1 X85.211 Y123.923 E2.61103
G1 X84.791 Y124.530 E2.63294
G1 X84.239 Y125.019 E2.65485
G1 X83.586 Y125.362 E2.67676
G1 X82.869 Y125.539 E2.69867
G1 X82.131 Y125.539 E2.72058
G1 X81.414 Y125.362 E2.74249
G1 X80.761 Y125.019 E2.76440
G1 X80.207 Y124.528 E2.78638
G1 X79.782 Y123.902 E2.80887
G1 X79.528 Y123.233 E2.83012
G1 X79.439 Y122.500 E2.85203
G1 X79.528 Y121.767 E2.87394
G1 X79.789 Y121.077 E2.89586
G1 X80.209 Y120.470 E2.91777
G1 X80.761 Y119.981 E2.93968
G1 X81.414 Y119.638 E2.96159
G1 X82.133 Y119.461 E2.98356
G1 X82.891 Y119.466 E3.00606
G1 X83.586 Y119.638 E3.02731
G1 X84.241 Y119.982 E3.04928
G1 X84.728 Y120.420 E3.06875
G1 X85.012 Y120.195 F7800.000
G1 F1800
G1 X85.074 Y120.251 E3.07124
G1 X85.529 Y120.910 E3.09502
G1 X85.821 Y121.681 E3.11951
G1 X85.921 Y122.500 E3.14399
G1 X85.821 Y123.319 E3.16848
G1 X85.529 Y124.090 E3.19296
G1 X85.061 Y124.768 E3.21745
G1 X84.443 Y125.315 E3.24193
G1 X83.713 Y125.699 E3.26642
G1 X82.912 Y125.896 E3.29091
G1 X82.088 Y125.896 E3.31539
G1 X81.287 Y125.699 E3.33988
G1 X80.557 Y125.315 E3.36436
G1 X79.937 Y124.766 E3.38896
G1 X79.463 Y124.068 E3.41402
G1 X79.179 Y123.319 E3.43781
G1 X79.079 Y122.500 E3.46229
G1 X79.179 Y121.681 E3.48678
G1 X79.471 Y120.910 E3.51126
G1 X79.939 Y120.232 E3.53575
G1 X80.557 Y119.685 E3.56023
G1 X81.287 Y119.301 E3.58472
G1 X82.091 Y119.103 E3.60931
G1 X82.935 Y119.110 E3.63438
G1 X83.713 Y119.301 E3.65816
G1 X84.446 Y119.686 E3.68275
G1 X84.967 Y120.155 E3.70355
G1 E1.70355 F2400.00000
G92 E0
G1 X114.797 Y122.499 F7800.000
G1 E2.00000 F2400.00000
G1 F1800
G1 X114.883 Y121.834 E2.01992
G1 X115.106 Y121.245 E2.03863
G1 X115.476 Y120.709 E2.05797
G1 X115.964 Y120.277 E2.07731
G1 X116.540 Y119.974 E2.09664
G1 X117.173 Y119.818 E2.11598
G1 X117.824 Y119.818 E2.13532
G1 X118.456 Y119.974 E2.15465
G1 X119.034 Y120.277 E2.17401
G1 X119.532 Y120.726 E2.19393
G1 X119.890 Y121.245 E2.21264
G1 X120.121 Y121.853 E2.23198
G1 X120.200 Y122.500 E2.25132
G1 X120.121 Y123.147 E2.27065
G1 X119.890 Y123.755 E2.28999
G1 X119.520 Y124.291 E2.30933
G1 X119.033 Y124.723 E2.32866
G1 X118.456 Y125.026 E2.34800
G1 X117.824 Y125.182 E2.36734
G1 X117.173 Y125.182 E2.38667
G1 X116.540 Y125.026 E2.40601
G1 X115.964 Y124.723 E2.42535
G1 X115.476 Y124.291 E2.44468
G1 X115.106 Y123.755 E2.46402
G1 X114.875 Y123.147 E2.48336
G1 X114.804 Y122.559 E2.50093
G1 X114.797 Y122.499 F7800.000
G1 X114.442 Y122.542 F7800.000
G1 F1800
G1 X114.534 Y121.747 E2.52472
G1 X114.788 Y121.077 E2.54597
G1 X115.207 Y120.470 E2.56788
G1 X115.759 Y119.981 E2.58979
G1 X116.413 Y119.638 E2.61170
G1 X117.129 Y119.461 E2.63361
G1 X117.867 Y119.461 E2.65552
G1 X118.584 Y119.638 E2.67743
G1 X119.239 Y119.982 E2.69941
G1 X119.802 Y120.488 E2.72190
G1 X120.209 Y121.077 E2.74315
G1 X120.470 Y121.767 E2.76506
G1 X120.559 Y122.500 E2.78697
G1 X120.470 Y123.233 E2.80888
G1 X120.209 Y123.923 E2.83079
G1 X119.790 Y124.530 E2.85271
G1 X119.237 Y125.019 E2.87462
G1 X118.584 Y125.362 E2.89653
G1 X117.867 Y125.539 E2.91844
G1 X117.129 Y125.539 E2.94035
G1 X116.413 Y125.362 E2.96226
G1 X115.759 Y125.019 E2.98417
G1 X115.207 Y124.530 E3.00608
G1 X114.788 Y123.923 E3.02799
G1 X114.526 Y123.233 E3.04991
G1 X114.449 Y122.602 E3.06877
G1 X114.088 Y122.585 F7800.000
G1 F1800
G1 X114.077 Y122.496 E3.07143
G1 X114.185 Y121.659 E3.09650
G1 X114.469 Y120.910 E3.12028
G1 X114.938 Y120.232 E3.14476
G1 X115.555 Y119.685 E3.16925
G1 X116.285 Y119.301 E3.19374
G1 X117.086 Y119.104 E3.21822
G1 X117.911 Y119.104 E3.24271
G1 X118.711 Y119.301 E3.26719
G1 X119.445 Y119.686 E3.29179
G1 X120.072 Y120.251 E3.31685
G1 X120.527 Y120.910 E3.34063
G1 X120.820 Y121.681 E3.36512
G1 X120.919 Y122.500 E3.38961
G1 X120.820 Y123.319 E3.41409
G1 X120.527 Y124.090 E3.43858
G1 X120.059 Y124.768 E3.46306
G1 X119.442 Y125.315 E3.48755
G1 X118.711 Y125.699 E3.51204
G1 X117.911 Y125.896 E3.53652
G1 X117.086 Y125.896 E3.56101
G1 X116.285 Y125.699 E3.58549
G1 X115.555 Y125.315 E3.60998
G1 X114.938 Y124.768 E3.63446
G1 X114.469 Y124.090 E3.65895
G1 X114.177 Y123.319 E3.68344
G1 X114.095 Y122.645 E3.70359
G1 X114.134 Y121.014 F7800.000
G1 F1800
G1 X101.281 Y133.868 E4.24410
G1 X101.786 Y133.868 E4.25914
G1 X113.939 Y121.715 E4.77017
G1 X113.864 Y122.296 E4.78759
G1 X102.292 Y133.868 E5.27420
G1 X102.798 Y133.868 E5.28923
G1 X113.905 Y122.760 E5.75631
G1 X113.960 Y123.211 E5.76982
G1 X103.303 Y133.868 E6.21794
G1 X103.809 Y133.868 E6.23297
G1 X114.089 Y123.588 E6.66524
G1 X114.228 Y123.955 E6.67690
G1 X104.315 Y133.868 E7.09375
G1 X104.821 Y133.868 E7.10879
G1 X114.404 Y124.284 E7.51179
G1 X114.611 Y124.583 E7.52260
G1 X105.326 Y133.868 E7.91302
G1 X105.832 Y133.868 E7.92806
G1 X114.820 Y124.880 E8.30602
G1 X115.088 Y125.117 E8.31667
G1 X106.338 Y133.868 E8.68465
G1 X106.844 Y133.868 E8.69969
G1 X115.357 Y125.355 E9.05767
G1 X115.489 Y125.472 E9.06295
G1 X115.657 Y125.560 E9.06857
G1 X107.349 Y133.868 E9.41791
G1 X107.855 Y133.868 E9.43294
G1 X115.988 Y125.734 E9.77496
G1 X116.325 Y125.903 E9.78617
G1 X108.361 Y133.868 E10.12109
G1 X108.866 Y133.868 E10.13613
G1 X116.731 Y126.003 E10.46684
G1 X117.137 Y126.103 E10.47927
G1 X109.372 Y133.868 E10.80578
G1 X109.878 Y133.868 E10.82082
G1 X117.631 Y126.114 E11.14686
G1 X118.093 Y126.114 E11.16058
G1 X118.152 Y126.100 E11.16239
G1 X110.384 Y133.868 E11.48904
G1 X110.889 Y133.868 E11.50408
G1 X118.823 Y125.934 E11.83769
G1 X118.978 Y125.896 E11.84244
G1 X119.785 Y125.472 E11.86954
G1 X119.833 Y125.429 E11.87147
G1 X111.395 Y133.868 E12.22631
G1 X111.901 Y133.868 E12.24135
G1 X128.868 Y116.901 E12.95483
G1 X128.868 Y117.407 E12.96987
G1 X112.407 Y133.868 E13.66208
G1 X112.912 Y133.868 E13.67712
G1 X128.868 Y117.912 E14.34807
G1 X128.868 Y118.418 E14.36311
G1 X113.418 Y133.868 E15.01279
G1 X113.924 Y133.868 E15.02783
G1 X128.868 Y118.924 E15.65624
G1 X128.868 Y119.429 E15.67128
G1 X114.429 Y133.868 E16.27843
G1 X114.935 Y133.868 E16.29346
G1 X128.868 Y119.935 E16.87934
G1 X128.868 Y120.441 E16.89438
G1 X115.441 Y133.868 E17.45900
G1 X115.947 Y133.868 E17.47403
G1 X128.868 Y120.947 E18.01738
G1 X128.868 Y121.452 E18.03242
G1 X116.452 Y133.868 E18.55450
G1 X116.958 Y133.868 E18.56954
G1 X128.868 Y121.958 E19.07035
G1 X128.868 Y122.464 E19.08539
G1 X117.464 Y133.868 E19.56494
G1 X117.970 Y133.868 E19.57998
G1 X128.868 Y122.970 E20.03826
G1 X128.868 Y123.475 E20.05330
G1 X118.475 Y133.868 E20.49031
G1 X118.981 Y133.868 E20.50535
G1 X128.868 Y123.981 E20.92110
G1 X128.868 Y124.487 E20.93614
G1 X119.487 Y133.868 E21.33062
G1 X119.992 Y133.868 E21.34566
G1 X128.868 Y124.992 E21.71888
G1 X128.868 Y125.498 E21.73391
G1 X120.498 Y133.868 E22.08586
G1 X121.004 Y133.868 E22.10090
G1 X128.868 Y126.004 E22.43158
G1 X128.868 Y126.510 E22.44662
G1 X121.510 Y133.868 E22.75604
G1 X122.015 Y133.868 E22.77108
G1 X128.868 Y127.015 E23.05923
G1 X128.868 Y127.521 E23.07426
G1 X122.521 Y133.868 E23.34115
G1 X123.027 Y133.868 E23.35618
G1 X128.868 Y128.027 E23.60180
G1 X128.868 Y128.533 E23.61684
G1 X123.533 Y133.868 E23.84119
G1 X124.038 Y133.868 E23.85623
G1 X128.868 Y129.038 E24.05931
G1 X128.868 Y129.544 E24.07435
G1 X124.544 Y133.868 E24.25617
G1 X125.050 Y133.868 E24.27120
G1 X128.868 Y130.050 E24.43176
G1 X128.868 Y130.555 E24.44679
G1 X125.555 Y133.868 E24.58608
G1 X126.061 Y133.868 E24.60112
G1 X128.868 Y131.061 E24.71913
G1 X128.868 Y131.567 E24.73417
G1 X126.567 Y133.868 E24.83092
G1 X127.073 Y133.868 E24.84596
G1 X128.868 Y132.073 E24.92145
G1 X128.868 Y132.578 E24.93648
G1 X127.578 Y133.868 E24.99070
G1 X128.084 Y133.868 E25.00574
G1 X128.868 Y133.084 E25.03869
G1 X128.868 Y133.590 E25.05373
G1 X128.590 Y133.868 E25.06541
G1 E23.06541 F2400.00000
G92 E0
G1 X120.350 Y124.913 F7800.000
G1 E2.00000 F2400.00000
G1 F1800
G1 X128.868 Y116.395 E2.35817
G1 X128.868 Y115.889 E2.37321
G1 X120.918 Y123.839 E2.70750
G1 X121.030 Y123.544 E2.71689
G1 X121.075 Y123.177 E2.72788
G1 X128.868 Y115.384 E3.05559
G1 X128.868 Y114.878 E3.07063
G1 X121.136 Y122.609 E3.39574
G1 X121.082 Y122.158 E3.40925
G1 X128.868 Y114.372 E3.73667
G1 X128.868 Y113.866 E3.75171
G1 X121.022 Y121.712 E4.08164
G1 X120.883 Y121.346 E4.09330
G1 X128.868 Y113.361 E4.42907
G1 X128.868 Y112.855 E4.44411
G1 X120.744 Y120.979 E4.78574
G1 X120.707 Y120.882 E4.78882
G1 X120.555 Y120.662 E4.79677
G1 X128.868 Y112.349 E5.14633
G1 X128.868 Y111.844 E5.16137
G1 X120.348 Y120.363 E5.51961
G1 X120.203 Y120.153 E5.52721
G1 X120.124 Y120.081 E5.53037
G1 X128.868 Y111.338 E5.89805
G1 X128.868 Y110.832 E5.91309
G1 X119.858 Y119.842 E6.29196
G1 X119.592 Y119.602 E6.30260
G1 X128.868 Y110.326 E6.69267
G1 X128.868 Y109.821 E6.70771
G1 X119.280 Y119.408 E7.11088
G1 X118.948 Y119.234 E7.12202
G1 X128.868 Y109.315 E7.53915
G1 X128.868 Y108.809 E7.55418
G1 X118.598 Y119.079 E7.98604
G1 X118.192 Y118.979 E7.99846
G1 X128.868 Y108.303 E8.44738
G1 X128.868 Y107.798 E8.46242
G1 X117.779 Y118.886 E8.92869
G1 X117.274 Y118.886 E8.94373
G1 X128.868 Y107.292 E9.43127
G1 X128.868 Y106.786 E9.44631
G1 X116.724 Y118.930 E9.95698
G1 X116.052 Y119.096 E9.97753
G1 X128.868 Y106.281 E10.51643
G1 X128.868 Y105.775 E10.53147
G1 X100.775 Y133.868 E11.71281
G1 X100.269 Y133.868 E11.72785
G1 X128.868 Y105.269 E12.93046
G1 X128.868 Y104.763 E12.94549
G1 X99.763 Y133.868 E14.16937
G1 X99.258 Y133.868 E14.18441
G1 X128.868 Y104.258 E15.42955
G1 X128.868 Y103.752 E15.44459
G1 X98.752 Y133.868 E16.71100
G1 X98.246 Y133.868 E16.72604
G1 X128.868 Y103.246 E18.01371
G1 X128.868 Y102.740 E18.02875
G1 X97.740 Y133.868 E19.33769
G1 X97.235 Y133.868 E19.35273
G1 X128.868 Y102.235 E20.68294
G1 X128.868 Y101.729 E20.69798
G1 X96.729 Y133.868 E22.04945
G1 X96.223 Y133.868 E22.06449
G1 X128.868 Y101.223 E23.43724
G1 X128.868 Y100.718 E23.45227
G1 X95.718 Y133.868 E24.84628
G1 X95.212 Y133.868 E24.86132
G1 X128.868 Y100.212 E26.27659
